X:125
T:Sylphs,The TS.125
T:New Sylphs,Tha,aka TS.125
T:Bill Hall’s No.1,aka TS.125
M:2/4
L:1/16
Q:1/4=90
S:Thomas Sands’ MS,1810,Lincolnshire
R:country dance
N:Different tune from “The Sylph”, Hardcore English p.64
N:The ‘The Sylph’ was written by John Abraham Fisher
O:England;Lincolnshire
Z:vmp.Ruairidh Greig, 2011
K:G
z2|BcBA G2D2|GABc d2g2|BcBA G2AB|c2A2A4|
BcBA G2D2|GABc defg|edcB ABcd|B2G2G2:|
|:d2|g2>a2 b2ag|a2f2d2f2|g2>a2 b2ag|a2d2d2z2|
gfga bagf|e^def gfe=d|d2>B2 ABcd|B2G2G2:|]

